assets/images/404.svg

<svg fill="none" height="308" viewBox="0 0 430 308" width="430" xmlns="http://www.w3.org/2000/svg"><path d="m426.125 217.695h-20.125v35.375h-48.75v-35.375h-72.875v-36.25l76-111.1249h45.625v110.4999h20.125zm-68.875-36.875v-21.25c0-1.917.042-4.333.125-7.25s.167-5.833.25-8.75c.167-3 .292-5.5.375-7.5.167-2.083.292-3.208.375-3.375h-1.375c-1.583 3.75-3.042 6.875-4.375 9.375-1.333 2.417-3.083 5.292-5.25 8.625l-20.25 30.125z" fill="#9b9371"/><path d="m244.865 194.403c.458-.309.906-.627 1.354-.966.518-.388 1.036-.806 1.524-1.234.548-.478 1.075-.986 1.593-1.514.279-.289.548-.577.817-.876 3.325-3.694 5.914-8.484 7.736-14.359 0 0 0-.01 0-.02.04-.119.07-.229.1-.348.1-.319.189-.637.289-.966.03-.1.05-.199.079-.299.03-.099.05-.189.08-.288.04-.14.07-.279.11-.419.707-2.748 1.224-5.755 1.553-8.991.189-1.832.319-3.744.388-5.726 0 0 0-.069 0-.099 0-.05 0-.1 0-.15 0 0 0-.02 0-.029 0-.289.02-.578.02-.867 0-.378.01-.757.02-1.135 0-.488.03-.956.03-1.454v-66.8037l.06-.8862.139-2.1707c.03-.4282.07-.8464.11-1.2447.099-.8663.239-1.633.418-2.3001 0-.01 0-.0199 0-.0299 0-.0199.01-.0498.02-.0697 0-.01 0-.0199 0-.0299.02-.0597.03-.1095.05-.1692.02-.0598.04-.1295.059-.1892 0-.01 0-.0299.01-.0399 0 0 0-.0099 0-.0199 0-.0199.01-.0398.02-.0697 0-.0099 0-.0199.01-.0398.01-.0299.02-.0598.03-.0896.05-.1295.09-.249.14-.3685 0-.0099 0-.0199.009-.0298 0 0 0-.0199.01-.0299.06-.1394.12-.2688.18-.3883v-.0299h.02c.019-.0498.049-.0996.079-.1394.05-.0996.1-.1892.16-.2788.567-.936 1.264-1.5733 2.081-1.8919.119-.0498.239-.0896.368-.1295.259-.0796.518-.1493.787-.1991.149-.0299.308-.0498.468-.0697.478-.0598.976-.0697 1.493-.0398.667.0497 1.305.1294 1.912.2489.179.0398.359.0697.528.1195.757.2091 1.205.3385 2.29.7269.09.0298.179.0697.279.0995l-.418-.2887c-3.386-2.2603-8.922-5.5164-10.336-6.0342-1.573-.6572-3.286-.7767-4.152-.8364-1.145-.0797-2.181.0797-3.117.4481-.936.3784-1.713 1.1451-2.32 2.32-.607 1.1651-.986 2.8877-1.135 5.148l-.15 2.2504v83.7218c0 9.738-1.513 17.604-4.55 23.589-1.792 3.535-4.003 6.492-6.622 8.892 1.862-.807 3.635-1.783 5.308-2.908" fill="#9b9371"/><path d="m272.469 78.1612s-.07-.0399-.11-.0598c-.1-.0398-.189-.0697-.279-.0996-1.075-.3883-1.533-.5177-2.28-.7268-.169-.0399-.349-.0797-.528-.1195-.607-.1195-1.244-.2091-1.912-.249-.517-.0298-1.015-.0199-1.493.0399-.159.0199-.319.0398-.468.0697-.269.0497-.528.1194-.787.1991-.119.0398-.249.0896-.368.1394-.817.3286-1.514.9559-2.081 1.8919-.05.0896-.11.1792-.16.2788-.029.0498-.049.0996-.079.1494 0 0 0 .0199-.01.0298-.06.1195-.12.2589-.179.3884 0 0 0 .0199-.01.0299 0 .0099 0 .0199-.01.0298-.05.1195-.1.239-.14.3685-.01.0298-.02.0597-.03.0995 0 .01 0 .0199-.01.0299 0 .0199-.01.0498-.02.0697v.0199c0 .0199-.009.0299-.009.0498-.02.0597-.04.1195-.06.1892-.02.0498-.03.1095-.05.1693v.0298c0 .02-.02.0498-.02.0697v.0299c-.179.6771-.329 1.4438-.428 2.3101-.04.3884-.08.8066-.11 1.2447l-.139 2.1707-.06.8763v66.8044c0 .497-.02.965-.03 1.453 0 .379-.01.757-.02 1.135 0 .289-.01.578-.019.867v.03.139.11c-.07 1.991-.2 3.893-.389 5.725-.328 3.246-.856 6.243-1.553 8.992-.02.079-.04.159-.06.229v.019c-.01.05-.03.1-.04.15v.02c-.03.099-.05.199-.079.289-.03.099-.05.199-.08.298-.09.329-.189.647-.279.966-.01.04-.02.08-.03.12v.02c-.02.069-.04.139-.069.209v.02c-1.833 5.874-4.412 10.654-7.737 14.358-.269.299-.538.588-.817.876-.518.528-1.045 1.036-1.593 1.514-.498.428-1.006.846-1.523 1.235-.449.328-.897.657-1.355.965-1.673 1.136-5.307 2.908-5.297 2.908 0 0-.169.129-.448.348-1.304 1.146-2.708 2.131-4.212 3.008-.488.308-.956.577-1.394.796-5.417 2.719-11.67 4.083-18.77 4.083-3.106 0-5.845-.17-8.205-.508-2.359-.339-4.361-.737-6.024-1.205v-20.054l11.601-8.713c.049.01.099.02.149.03.956.209 1.981.408 3.067.607 1.095.2 2.27.289 3.505.289 1.623 0 3.087-.308 4.381-.926 1.265-.597 2.24-1.732 2.997-3.375.259-1.962.398-4.172.398-6.662v-97.821c-.029-.7568-.338-2.3201-.697-3.1167-.527-1.2048-1.254-2.0313-2.16-2.4595-.638-.2987-1.335-.4978-2.091-.5875-1.882-.0995-3.764-.1593-5.676-.1593-55.891-.0099-101.127 45.226-101.127 101.018 0 55.811 45.236 101.047 101.037 101.047s101.038-45.236 101.038-101.037c0-34.881-17.694-65.6196-44.579-83.7718" fill="#000"/><g fill="#9b9371"><path d="m211.867 185.352c2.798 0 5.307-.527 7.538-1.593.478-.229 1.045-.557 1.603-.946 1.484-1.155 2.718-2.828 3.684-5.028.568-1.305 1.016-2.858 1.334-4.66.06-.458.12-.936.19-1.424-.747 1.643-1.733 2.778-2.998 3.375-1.294.618-2.758.927-4.381.927-1.235 0-2.4-.1-3.505-.289-1.085-.199-2.111-.399-3.067-.608-.049-.01-.099-.02-.149-.03l-11.6 8.713c1.653.359 3.425.727 5.317 1.066 1.892.338 3.893.507 6.024.507"/><path d="m146.725 217.695h-20.125v35.375h-48.7504v-35.375h-72.87499v-36.25l75.99999-111.1249h45.6254v110.4999h20.125zm-68.8754-36.875v-21.25c0-1.917.0417-4.333.125-7.25s.1667-5.833.25-8.75c.1667-3 .2917-5.5.375-7.5.1667-2.083.2917-3.208.375-3.375h-1.375c-1.5833 3.75-3.0417 6.875-4.375 9.375-1.3333 2.417-3.0833 5.292-5.25 8.625l-20.25 30.125z"/></g></svg>

<svg width="430" height="308" viewBox="0 0 430 308" fill="none" xmlns="http://www.w3.org/2000/svg">
    <path d="M426.125 217.695H406V253.07H357.25V217.695H284.375V181.445L360.375 70.3201H406V180.82H426.125V217.695ZM357.25 180.82V159.57C357.25 157.653 357.292 155.237 357.375 152.32C357.458 149.403 357.542 146.487 357.625 143.57C357.792 140.57 357.917 138.07 358 136.07C358.167 133.987 358.292 132.862 358.375 132.695H357C355.417 136.445 353.958 139.57 352.625 142.07C351.292 144.487 349.542 147.362 347.375 150.695L327.125 180.82H357.25Z" fill="#9B9371"/>
    <path d="M244.865 194.403C245.323 194.094 245.771 193.776 246.219 193.437C246.737 193.049 247.255 192.631 247.743 192.203C248.291 191.725 248.818 191.217 249.336 190.689C249.615 190.4 249.884 190.112 250.153 189.813C253.478 186.119 256.067 181.329 257.889 175.454C257.889 175.454 257.889 175.444 257.889 175.434C257.929 175.315 257.959 175.205 257.989 175.086C258.089 174.767 258.178 174.449 258.278 174.12C258.308 174.02 258.328 173.921 258.357 173.821C258.387 173.722 258.407 173.632 258.437 173.533C258.477 173.393 258.507 173.254 258.547 173.114C259.254 170.366 259.771 167.359 260.1 164.123C260.289 162.291 260.419 160.379 260.488 158.397C260.488 158.397 260.488 158.328 260.488 158.298C260.488 158.248 260.488 158.198 260.488 158.148C260.488 158.148 260.488 158.128 260.488 158.119C260.488 157.83 260.508 157.541 260.508 157.252C260.508 156.874 260.518 156.495 260.528 156.117C260.528 155.629 260.558 155.161 260.558 154.663V87.8593L260.618 86.9731L260.757 84.8024C260.787 84.3742 260.827 83.956 260.867 83.5577C260.966 82.6914 261.106 81.9247 261.285 81.2576C261.285 81.2476 261.285 81.2377 261.285 81.2277C261.285 81.2078 261.295 81.1779 261.305 81.158C261.305 81.148 261.305 81.1381 261.305 81.1281C261.325 81.0684 261.335 81.0186 261.355 80.9589C261.375 80.8991 261.395 80.8294 261.414 80.7697C261.414 80.7597 261.414 80.7398 261.424 80.7298C261.424 80.7298 261.424 80.7199 261.424 80.7099C261.424 80.69 261.434 80.6701 261.444 80.6402C261.444 80.6303 261.444 80.6203 261.454 80.6004C261.464 80.5705 261.474 80.5406 261.484 80.5108C261.534 80.3813 261.574 80.2618 261.624 80.1423C261.624 80.1324 261.624 80.1224 261.633 80.1125C261.633 80.1125 261.633 80.0926 261.643 80.0826C261.703 79.9432 261.763 79.8138 261.823 79.6943V79.6644C261.823 79.6644 261.833 79.6644 261.843 79.6644C261.862 79.6146 261.892 79.5648 261.922 79.525C261.972 79.4254 262.022 79.3358 262.082 79.2462C262.649 78.3102 263.346 77.6729 264.163 77.3543C264.282 77.3045 264.402 77.2647 264.531 77.2248C264.79 77.1452 265.049 77.0755 265.318 77.0257C265.467 76.9958 265.626 76.9759 265.786 76.956C266.264 76.8962 266.762 76.8863 267.279 76.9162C267.946 76.9659 268.584 77.0456 269.191 77.1651C269.37 77.2049 269.55 77.2348 269.719 77.2846C270.476 77.4937 270.924 77.6231 272.009 78.0115C272.099 78.0413 272.188 78.0812 272.288 78.111L271.87 77.8223C268.484 75.562 262.948 72.3059 261.534 71.7881C259.961 71.1309 258.248 71.0114 257.382 70.9517C256.237 70.872 255.201 71.0314 254.265 71.3998C253.329 71.7782 252.552 72.5449 251.945 73.7198C251.338 74.8849 250.959 76.6075 250.81 78.8678L250.66 81.1182V164.84C250.66 174.578 249.147 182.444 246.11 188.429C244.318 191.964 242.107 194.921 239.488 197.321C241.35 196.514 243.123 195.538 244.796 194.413" fill="#9B9371"/>
    <path d="M272.469 78.1612C272.469 78.1612 272.399 78.1213 272.359 78.1014C272.259 78.0616 272.17 78.0317 272.08 78.0018C271.005 77.6135 270.547 77.4841 269.8 77.275C269.631 77.2351 269.451 77.1953 269.272 77.1555C268.665 77.036 268.028 76.9464 267.36 76.9065C266.843 76.8767 266.345 76.8866 265.867 76.9464C265.708 76.9663 265.548 76.9862 265.399 77.0161C265.13 77.0658 264.871 77.1355 264.612 77.2152C264.493 77.255 264.363 77.3048 264.244 77.3546C263.427 77.6832 262.73 78.3105 262.163 79.2465C262.113 79.3361 262.053 79.4257 262.003 79.5253C261.974 79.5751 261.954 79.6249 261.924 79.6747C261.924 79.6747 261.924 79.6946 261.914 79.7045C261.854 79.824 261.794 79.9634 261.735 80.0929C261.735 80.0929 261.735 80.1128 261.725 80.1228C261.725 80.1327 261.725 80.1427 261.715 80.1526C261.665 80.2721 261.615 80.3916 261.575 80.5211C261.565 80.5509 261.555 80.5808 261.545 80.6206C261.545 80.6306 261.545 80.6405 261.535 80.6505C261.535 80.6704 261.525 80.7003 261.515 80.7202C261.515 80.7202 261.515 80.7302 261.515 80.7401C261.515 80.76 261.506 80.77 261.506 80.7899C261.486 80.8496 261.466 80.9094 261.446 80.9791C261.426 81.0289 261.416 81.0886 261.396 81.1484C261.396 81.1583 261.396 81.1683 261.396 81.1782C261.396 81.1982 261.376 81.228 261.376 81.2479C261.376 81.2579 261.376 81.2679 261.376 81.2778C261.197 81.9549 261.047 82.7216 260.948 83.5879C260.908 83.9763 260.868 84.3945 260.838 84.8326L260.699 87.0033L260.639 87.8796V154.684C260.639 155.181 260.619 155.649 260.609 156.137C260.609 156.516 260.599 156.894 260.589 157.272C260.589 157.561 260.579 157.85 260.57 158.139C260.57 158.139 260.57 158.159 260.57 158.169C260.57 158.248 260.57 158.288 260.57 158.308C260.57 158.308 260.57 158.348 260.57 158.418C260.5 160.409 260.37 162.311 260.181 164.143C259.853 167.389 259.325 170.386 258.628 173.135C258.608 173.214 258.588 173.294 258.568 173.364C258.568 173.364 258.568 173.374 258.568 173.383C258.558 173.433 258.538 173.483 258.528 173.533V173.553C258.498 173.652 258.478 173.752 258.449 173.842C258.419 173.941 258.399 174.041 258.369 174.14C258.279 174.469 258.18 174.787 258.09 175.106C258.08 175.146 258.07 175.186 258.06 175.226C258.06 175.226 258.06 175.236 258.06 175.246C258.04 175.315 258.02 175.385 257.991 175.455C257.991 175.455 257.991 175.465 257.991 175.475C256.158 181.349 253.579 186.129 250.254 189.833C249.985 190.132 249.716 190.421 249.437 190.709C248.919 191.237 248.392 191.745 247.844 192.223C247.346 192.651 246.838 193.069 246.321 193.458C245.872 193.786 245.424 194.115 244.966 194.423C243.293 195.559 239.659 197.331 239.669 197.331C239.669 197.331 239.5 197.46 239.221 197.679C237.917 198.825 236.513 199.81 235.009 200.687C234.521 200.995 234.053 201.264 233.615 201.483C228.198 204.202 221.945 205.566 214.845 205.566C211.739 205.566 209 205.396 206.64 205.058C204.281 204.719 202.279 204.321 200.616 203.853V183.799L212.217 175.086C212.266 175.096 212.316 175.106 212.366 175.116C213.322 175.325 214.347 175.524 215.433 175.723C216.528 175.923 217.703 176.012 218.938 176.012C220.561 176.012 222.025 175.704 223.319 175.086C224.584 174.489 225.559 173.354 226.316 171.711C226.575 169.749 226.714 167.539 226.714 165.049V67.228C226.685 66.4712 226.376 64.9079 226.017 64.1113C225.49 62.9065 224.763 62.08 223.857 61.6518C223.219 61.3531 222.522 61.154 221.766 61.0643C219.884 60.9648 218.002 60.905 216.09 60.905C160.199 60.8951 114.963 106.131 114.963 161.923C114.963 217.734 160.199 262.97 216 262.97C271.801 262.97 317.038 217.734 317.038 161.933C317.038 127.052 299.344 96.3134 272.459 78.1612" fill="black"/>
    <path d="M211.867 185.352C214.665 185.352 217.174 184.825 219.405 183.759C219.883 183.53 220.45 183.202 221.008 182.813C222.492 181.658 223.726 179.985 224.692 177.785C225.26 176.48 225.708 174.927 226.026 173.125C226.086 172.667 226.146 172.189 226.216 171.701C225.469 173.344 224.483 174.479 223.218 175.076C221.924 175.694 220.46 176.003 218.837 176.003C217.602 176.003 216.437 175.903 215.332 175.714C214.247 175.515 213.221 175.315 212.265 175.106C212.216 175.096 212.166 175.086 212.116 175.076L200.516 183.789C202.169 184.148 203.941 184.516 205.833 184.855C207.725 185.193 209.726 185.362 211.857 185.362" fill="#9B9371"/>
    <path d="M146.725 217.695H126.6V253.07H77.8496V217.695H4.97461V181.445L80.9746 70.3201H126.6V180.82H146.725V217.695ZM77.8496 180.82V159.57C77.8496 157.653 77.8913 155.237 77.9746 152.32C78.0579 149.403 78.1413 146.487 78.2246 143.57C78.3913 140.57 78.5163 138.07 78.5996 136.07C78.7663 133.987 78.8913 132.862 78.9746 132.695H77.5996C76.0163 136.445 74.5579 139.57 73.2246 142.07C71.8913 144.487 70.1413 147.362 67.9746 150.695L47.7246 180.82H77.8496Z" fill="#9B9371"/>
</svg>
